; G-Code generated by Simplify3D(R) Version 4.1.2
; Apr 12, 2020 at 9:07:07 AM
; Settings Summary
;   processName,Process1
;   applyToModels,CapteurMTOExt partie basse
;   profileName,Alfawise U20 One
;   profileVersion,2020-01-09 17:20:34
;   baseProfile,Creality CR-10(2)
;   printMaterial,PLA
;   printQuality,Medium
;   printExtruders,
;   extruderName,Primary Extruder
;   extruderToolheadNumber,0
;   extruderDiameter,0.4
;   extruderAutoWidth,1
;   extruderWidth,0.48
;   extrusionMultiplier,1.1
;   extruderUseRetract,1
;   extruderRetractionDistance,2.5
;   extruderExtraRestartDistance,0
;   extruderRetractionZLift,0
;   extruderRetractionSpeed,3600
;   extruderUseCoasting,1
;   extruderCoastingDistance,0.2
;   extruderUseWipe,1
;   extruderWipeDistance,4
;   primaryExtruder,0
;   layerHeight,0.2
;   topSolidLayers,10
;   bottomSolidLayers,10
;   perimeterOutlines,3
;   printPerimetersInsideOut,1
;   startPointOption,2
;   startPointOriginX,0
;   startPointOriginY,500
;   sequentialIslands,0
;   spiralVaseMode,0
;   firstLayerHeightPercentage,300
;   firstLayerWidthPercentage,100
;   firstLayerUnderspeed,0.5
;   useRaft,0
;   raftExtruder,0
;   raftTopLayers,3
;   raftBaseLayers,2
;   raftOffset,3
;   raftSeparationDistance,0.14
;   raftTopInfill,100
;   aboveRaftSpeedMultiplier,0.3
;   useSkirt,0
;   skirtExtruder,0
;   skirtLayers,1
;   skirtOutlines,3
;   skirtOffset,2
;   usePrimePillar,0
;   primePillarExtruder,999
;   primePillarWidth,12
;   primePillarLocation,7
;   primePillarSpeedMultiplier,1
;   useOozeShield,0
;   oozeShieldExtruder,999
;   oozeShieldOffset,2
;   oozeShieldOutlines,1
;   oozeShieldSidewallShape,1
;   oozeShieldSidewallAngle,30
;   oozeShieldSpeedMultiplier,1
;   infillExtruder,0
;   internalInfillPattern,Full Honeycomb
;   externalInfillPattern,Rectilinear
;   infillPercentage,15
;   outlineOverlapPercentage,25
;   infillExtrusionWidthPercentage,120
;   minInfillLength,5
;   infillLayerInterval,1
;   internalInfillAngles,0,120,-120
;   overlapInternalInfillAngles,0
;   externalInfillAngles,45,-45
;   generateSupport,1
;   supportExtruder,0
;   supportInfillPercentage,20
;   supportExtraInflation,1
;   supportBaseLayers,2
;   denseSupportExtruder,0
;   denseSupportLayers,0
;   denseSupportInfillPercentage,70
;   supportLayerInterval,1
;   supportHorizontalPartOffset,0.4
;   supportUpperSeparationLayers,2
;   supportLowerSeparationLayers,1
;   supportType,0
;   supportGridSpacing,2
;   maxOverhangAngle,45
;   supportAngles,0,45
;   temperatureName,Primary Extruder,Heated Bed
;   temperatureNumber,0,0
;   temperatureSetpointCount,1,1
;   temperatureSetpointLayers,1,1
;   temperatureSetpointTemperatures,210,50
;   temperatureStabilizeAtStartup,1,1
;   temperatureHeatedBed,0,1
;   fanLayers,1,3,4
;   fanSpeeds,0,80,100
;   blipFanToFullPower,1
;   adjustSpeedForCooling,1
;   minSpeedLayerTime,15
;   minCoolingSpeedSlowdown,80
;   increaseFanForCooling,0
;   minFanLayerTime,45
;   maxCoolingFanSpeed,100
;   increaseFanForBridging,1
;   bridgingFanSpeed,100
;   use5D,1
;   relativeEdistances,0
;   allowEaxisZeroing,1
;   independentExtruderAxes,0
;   includeM10123,0
;   stickySupport,1
;   applyToolheadOffsets,0
;   gcodeXoffset,0
;   gcodeYoffset,0
;   gcodeZoffset,0
;   overrideMachineDefinition,1
;   machineTypeOverride,0
;   strokeXoverride,300
;   strokeYoverride,300
;   strokeZoverride,400
;   originOffsetXoverride,0
;   originOffsetYoverride,0
;   originOffsetZoverride,0
;   homeXdirOverride,-1
;   homeYdirOverride,-1
;   homeZdirOverride,-1
;   flipXoverride,1
;   flipYoverride,-1
;   flipZoverride,1
;   toolheadOffsets,0,0|0,0|0,0|0,0|0,0|0,0
;   overrideFirmwareConfiguration,1
;   firmwareTypeOverride,RepRap (Marlin/Repetier/Sprinter)
;   GPXconfigOverride,r2
;   baudRateOverride,250000
;   overridePrinterModels,1
;   printerModelsOverride
;   startingGcode,G28 ; home all axes,G1 Z5 F3000 ; lift,G1 X20 Y20 F1500 ; avoid binder clips,G1 Z0.2 F3000 ; get ready to prime,G92 E0 ; reset extrusion distance,G1 X120 E10 F600 ; prime nozzle,G1 X150 F5000 ; quick wipe,M117 MADEINFCK
;   layerChangeGcode,
;   retractionGcode,
;   toolChangeGcode,
;   endingGcode,G28 X0 ; home x axis,M106 S0 ; turn off cooling fan,M104 S0 ; turn off extruder,M140 S0 ; turn off bed,M84 ; disable motors,M117 IMPRESSION TERMINEE
;   exportFileFormat,gcode
;   celebration,0
;   celebrationSong,Star Wars
;   postProcessing,
;   defaultSpeed,3000
;   outlineUnderspeed,0.6
;   solidInfillUnderspeed,0.8
;   supportUnderspeed,0.8
;   rapidXYspeed,7200
;   rapidZspeed,1002
;   minBridgingArea,50
;   bridgingExtraInflation,0
;   bridgingExtrusionMultiplier,0.85
;   bridgingSpeedMultiplier,1.05
;   useFixedBridgingAngle,0
;   fixedBridgingAngle,0
;   applyBridgingToPerimeters,0
;   filamentDiameters,1.75|1.75|1.75|1.75|1.75|1.75
;   filamentPricesPerKg,30|46|46|46|46|46
;   filamentDensities,1.25|1.25|1.25|1.25|1.25|1.25
;   useMinPrintHeight,0
;   minPrintHeight,0
;   useMaxPrintHeight,0
;   maxPrintHeight,9
;   useDiaphragm,0
;   diaphragmLayerInterval,20
;   robustSlicing,1
;   mergeAllIntoSolid,0
;   onlyRetractWhenCrossingOutline,1
;   retractBetweenLayers,1
;   useRetractionMinTravel,0
;   retractionMinTravel,3
;   retractWhileWiping,0
;   onlyWipeOutlines,1
;   avoidCrossingOutline,0
;   maxMovementDetourFactor,3
;   toolChangeRetractionDistance,12
;   toolChangeExtraRestartDistance,-0.5
;   toolChangeRetractionSpeed,600
;   externalThinWallType,0
;   internalThinWallType,2
;   thinWallAllowedOverlapPercentage,20
;   singleExtrusionMinLength,1
;   singleExtrusionMinPrintingWidthPercentage,50
;   singleExtrusionMaxPrintingWidthPercentage,200
;   singleExtrusionEndpointExtension,0.3
;   horizontalSizeCompensation,0
G90
M82
M106 S0
M140 S50
M190 S50
M104 S210 T0
M109 S210 T0
G28 ; home all axes
G1 Z5 F3000 ; lift
G1 X20 Y20 F1500 ; avoid binder clips
G1 Z0.2 F3000 ; get ready to prime
G92 E0 ; reset extrusion distance
G1 X120 E10 F600 ; prime nozzle
G1 X150 F5000 ; quick wipe
M117 MADEINFCK
; process Process1
; layer 1, Z = 0.600
T0
G92 E0.0000
G1 E-2.5000 F3600
; feature inner perimeter
; tool H0.600 W0.480
G1 Z0.600 F1002
G1 X91.200 Y111.200 F7200
G1 E0.0000 F3600
G92 E0.0000
G1 X208.800 Y111.200 E15.4891 F1200
G1 X208.800 Y188.800 E25.7098
G1 X91.200 Y188.800 E41.1989
G1 X91.200 Y111.400 E51.3933
G1 X91.200 Y111.200 F1200
G1 X90.720 Y110.720 F7200
G92 E0.0000
G1 X209.280 Y110.720 E15.6156 F1200
G1 X209.280 Y189.280 E25.9627
G1 X90.720 Y189.280 E41.5783
G1 X90.720 Y110.920 E51.8991
G1 X90.720 Y110.720 F1200
; feature outer perimeter
G1 X90.240 Y110.240 F7200
G92 E0.0000
G1 X209.760 Y110.240 E15.7420 F900
G1 X209.760 Y189.760 E26.2156
G1 X90.240 Y189.760 E41.9576
G1 X90.240 Y110.440 E52.4048
G1 X90.240 Y110.240 F900
G1 X94.240 Y110.240 F900
; feature solid layer
G1 X92.047 Y188.440 F7200
G92 E0.0000
G1 X91.560 Y187.953 E0.0908 F1200
G1 X91.560 Y187.274 E0.1802
G1 X92.726 Y188.440 E0.3974
G1 X93.405 Y188.440 E0.4868
G1 X91.560 Y186.595 E0.8304
G1 X91.560 Y185.916 E0.9198
G1 X94.084 Y188.440 E1.3899
G1 X94.763 Y188.440 E1.4793
G1 X91.560 Y185.237 E2.0758
G1 X91.560 Y184.559 E2.1652
G1 X95.441 Y188.440 E2.8882
G1 X96.120 Y188.440 E2.9776
G1 X91.560 Y183.880 E3.8270
G1 X91.560 Y183.201 E3.9164
G1 X96.799 Y188.440 E4.8922
G1 X97.478 Y188.440 E4.9816
G1 X91.560 Y182.522 E6.0839
G1 X91.560 Y181.843 E6.1733
G1 X98.157 Y188.440 E7.4021
G1 X98.835 Y188.440 E7.4915
G1 X91.560 Y181.165 E8.8466
G1 X91.560 Y180.486 E8.9361
G1 X99.514 Y188.440 E10.4177
G1 X100.193 Y188.440 E10.5071
G1 X91.560 Y179.807 E12.1151
G1 X91.560 Y179.128 E12.2045
G1 X100.872 Y188.440 E13.9390
G1 X101.551 Y188.440 E14.0284
G1 X91.560 Y178.449 E15.8894
G1 X91.560 Y177.770 E15.9788
G1 X102.230 Y188.440 E17.9662
G1 X102.908 Y188.440 E18.0556
G1 X91.560 Y177.092 E20.1694
G1 X91.560 Y176.413 E20.2588
G1 X103.587 Y188.440 E22.4991
G1 X104.266 Y188.440 E22.5885
G1 X91.560 Y175.734 E24.9552
G1 X91.560 Y175.055 E25.0446
G1 X104.945 Y188.440 E27.5377
G1 X105.624 Y188.440 E27.6271
G1 X91.560 Y174.376 E30.2467
G1 X91.560 Y173.698 E30.3361
G1 X106.302 Y188.440 E33.0821
G1 X106.981 Y188.440 E33.1716
G1 X91.560 Y173.019 E36.0440
G1 X91.560 Y172.340 E36.1334
G1 X107.660 Y188.440 E39.1323
G1 X108.339 Y188.440 E39.2218
G1 X91.560 Y171.661 E42.3471
G1 X91.560 Y170.982 E42.4365
G1 X109.018 Y188.440 E45.6883
G1 X109.697 Y188.440 E45.7777
G1 X91.560 Y170.303 E49.1560
G1 X91.560 Y169.625 E49.2454
G1 X110.375 Y188.440 E52.7500
G1 X111.054 Y188.440 E52.8394
G1 X91.560 Y168.946 E56.4706
G1 X91.560 Y168.267 E56.5600
G1 X111.733 Y188.440 E60.3175
G1 X112.412 Y188.440 E60.4069
G1 X91.560 Y167.588 E64.2910
G1 X91.560 Y166.909 E64.3804
G1 X113.091 Y188.440 E68.3908
G1 X113.770 Y188.440 E68.4802
G1 X91.560 Y166.230 E72.6171
G1 X91.560 Y165.552 E72.7065
G1 X114.448 Y188.440 E76.9698
G1 X115.127 Y188.440 E77.0592
G1 X91.560 Y164.873 E81.4490
G1 X91.560 Y164.194 E81.5384
G1 X115.806 Y188.440 E86.0546
G1 X116.485 Y188.440 E86.1440
G1 X91.560 Y163.515 E90.7867
G1 X91.560 Y162.836 E90.8761
G1 X117.164 Y188.440 E95.6452
G1 X117.842 Y188.440 E95.7346
G1 X91.560 Y162.158 E100.6301
G1 X91.560 Y161.479 E100.7196
G1 X118.521 Y188.440 E105.7415
G1 X119.200 Y188.440 E105.8309
G1 X91.560 Y160.800 E110.9794
G1 X91.560 Y160.121 E111.0688
G1 X119.879 Y188.440 E116.3436
G1 X120.558 Y188.440 E116.4330
G1 X91.560 Y159.442 E121.8343
G1 X91.560 Y158.763 E121.9238
G1 X121.237 Y188.440 E127.4515
G1 X121.915 Y188.440 E127.5409
G1 X91.560 Y158.085 E133.1951
G1 X91.560 Y157.406 E133.2845
G1 X122.594 Y188.440 E139.0651
G1 X123.273 Y188.440 E139.1545
G1 X91.560 Y156.727 E145.0616
G1 X91.560 Y156.048 E145.1510
G1 X123.952 Y188.440 E151.1845
G1 X124.631 Y188.440 E151.2739
G1 X91.560 Y155.369 E157.4339
G1 X91.560 Y154.690 E157.5233
G1 X125.310 Y188.440 E163.8097
G1 X125.988 Y188.440 E163.8991
G1 X91.560 Y154.012 E170.3119
G1 X91.560 Y153.333 E170.4014
G1 X126.667 Y188.440 E176.9406
G1 X127.346 Y188.440 E177.0300
G1 X91.560 Y152.654 E183.6958
G1 X91.560 Y151.975 E183.7852
G1 X128.025 Y188.440 E190.5773
G1 X128.704 Y188.440 E190.6667
G1 X91.560 Y151.296 E197.5854
G1 X91.560 Y150.618 E197.6748
G1 X129.382 Y188.440 E204.7198
G1 X130.061 Y188.440 E204.8092
G1 X91.560 Y149.939 E211.9807
G1 X91.560 Y149.260 E212.0701
G1 X130.740 Y188.440 E219.3680
G1 X131.419 Y188.440 E219.4575
G1 X91.560 Y148.581 E226.8818
G1 X91.560 Y147.902 E226.9712
G1 X132.098 Y188.440 E234.5220
G1 X132.777 Y188.440 E234.6115
G1 X91.560 Y147.223 E242.2887
G1 X91.560 Y146.545 E242.3781
G1 X133.455 Y188.440 E250.1818
G1 X134.134 Y188.440 E250.2712
G1 X91.560 Y145.866 E258.2014
G1 X91.560 Y145.187 E258.2908
G1 X134.813 Y188.440 E266.3474
G1 X135.492 Y188.440 E266.4368
G1 X91.560 Y144.508 E274.6198
G1 X91.560 Y143.829 E274.7092
G1 X136.171 Y188.440 E283.0187
G1 X136.850 Y188.440 E283.1081
G1 X91.560 Y143.150 E291.5440
G1 X91.560 Y142.472 E291.6334
G1 X137.528 Y188.440 E300.1957
G1 X138.207 Y188.440 E300.2851
G1 X91.560 Y141.793 E308.9739
G1 X91.560 Y141.114 E309.0633
G1 X138.886 Y188.440 E317.8786
G1 X139.565 Y188.440 E317.9680
G1 X91.560 Y140.435 E326.9096
G1 X91.560 Y139.756 E326.9991
G1 X140.244 Y188.440 E336.0672
G1 X140.922 Y188.440 E336.1566
G1 X91.560 Y139.078 E345.3511
G1 X91.560 Y138.399 E345.4405
G1 X141.601 Y188.440 E354.7615
G1 X142.280 Y188.440 E354.8509
G1 X91.560 Y137.720 E364.2984
G1 X91.560 Y137.041 E364.3878
G1 X142.959 Y188.440 E373.9617
G1 X143.638 Y188.440 E374.0511
G1 X91.560 Y136.362 E383.7514
G1 X91.560 Y135.683 E383.8408
G1 X144.317 Y188.440 E393.6676
G1 X144.995 Y188.440 E393.7570
G1 X91.560 Y135.005 E403.7102
G1 X91.560 Y134.326 E403.7996
G1 X145.674 Y188.440 E413.8793
G1 X146.353 Y188.440 E413.9687
G1 X91.560 Y133.647 E424.1747
G1 X91.560 Y132.968 E424.2642
G1 X147.032 Y188.440 E434.5967
G1 X147.711 Y188.440 E434.6861
G1 X91.560 Y132.289 E445.1451
G1 X91.560 Y131.611 E445.2345
G1 X148.389 Y188.440 E455.8199
G1 X149.068 Y188.440 E455.9093
G1 X91.560 Y130.932 E466.6212
G1 X91.560 Y130.253 E466.7106
G1 X149.747 Y188.440 E477.5489
G1 X150.426 Y188.440 E477.6383
G1 X91.560 Y129.574 E488.6030
G1 X91.560 Y128.895 E488.6924
G1 X151.105 Y188.440 E499.7836
G1 X151.784 Y188.440 E499.8730
G1 X91.560 Y128.216 E511.0906
G1 X91.560 Y127.538 E511.1800
G1 X152.462 Y188.440 E522.5241
G1 X153.141 Y188.440 E522.6135
G1 X91.560 Y126.859 E534.0840
G1 X91.560 Y126.180 E534.1734
G1 X153.820 Y188.440 E545.7704
G1 X154.499 Y188.440 E545.8598
G1 X91.560 Y125.501 E557.5832
G1 X91.560 Y124.822 E557.6726
G1 X155.178 Y188.440 E569.5224
G1 X155.857 Y188.440 E569.6118
G1 X91.560 Y124.143 E581.5881
G1 X91.560 Y123.465 E581.6775
G1 X156.535 Y188.440 E593.7802
G1 X157.214 Y188.440 E593.8696
G1 X91.560 Y122.786 E606.0988
G1 X91.560 Y122.107 E606.1882
G1 X157.893 Y188.440 E618.5438
G1 X158.572 Y188.440 E618.6332
G1 X91.560 Y121.428 E631.1153
G1 X91.560 Y120.749 E631.2047
G1 X159.251 Y188.440 E643.8132
G1 X159.929 Y188.440 E643.9026
G1 X91.560 Y120.071 E656.6375
G1 X91.560 Y119.392 E656.7269
G1 X160.608 Y188.440 E669.5883
G1 X161.287 Y188.440 E669.6777
G1 X91.560 Y118.713 E682.6655
G1 X91.560 Y118.034 E682.7549
G1 X161.966 Y188.440 E695.8691
G1 X162.645 Y188.440 E695.9585
G1 X91.560 Y117.355 E709.1992
G1 X91.560 Y116.676 E709.2886
G1 X163.324 Y188.440 E722.6558
G1 X164.002 Y188.440 E722.7452
G1 X91.560 Y115.998 E736.2388
G1 X91.560 Y115.319 E736.3282
G1 X164.681 Y188.440 E749.9482
G1 X165.360 Y188.440 E750.0376
G1 X91.560 Y114.640 E763.7841
G1 X91.560 Y113.961 E763.8735
G1 X166.039 Y188.440 E777.7464
G1 X166.718 Y188.440 E777.8358
G1 X91.560 Y113.282 E791.8351
G1 X91.560 Y112.603 E791.9245
G1 X167.397 Y188.440 E806.0503
G1 X168.075 Y188.440 E806.1397
G1 X91.560 Y111.925 E820.3919
G1 X91.560 Y111.560 E820.4400
G1 X91.874 Y111.560 E820.4813
G1 X168.754 Y188.440 E834.8015
G1 X169.433 Y188.440 E834.8909
G1 X92.553 Y111.560 E849.2111
G1 X93.232 Y111.560 E849.3005
G1 X170.112 Y188.440 E863.6206
G1 X170.791 Y188.440 E863.7100
G1 X93.911 Y111.560 E878.0302
G1 X94.589 Y111.560 E878.1196
G1 X171.469 Y188.440 E892.4397
G1 X172.148 Y188.440 E892.5291
G1 X95.268 Y111.560 E906.8493
G1 X95.947 Y111.560 E906.9387
G1 X172.827 Y188.440 E921.2588
G1 X173.506 Y188.440 E921.3483
G1 X96.626 Y111.560 E935.6684
G1 X97.305 Y111.560 E935.7578
G1 X174.185 Y188.440 E950.0780
G1 X174.864 Y188.440 E950.1674
G1 X97.984 Y111.560 E964.4875
G1 X98.662 Y111.560 E964.5769
G1 X175.542 Y188.440 E978.8971
G1 X176.221 Y188.440 E978.9865
G1 X99.341 Y111.560 E993.3066
G1 X100.020 Y111.560 E993.3960
G1 X176.900 Y188.440 E1007.7162
G1 X177.579 Y188.440 E1007.8056
G1 X100.699 Y111.560 E1022.1258
G1 X101.378 Y111.560 E1022.2152
G1 X178.258 Y188.440 E1036.5353
G1 X178.936 Y188.440 E1036.6247
G1 X102.056 Y111.560 E1050.9449
G1 X102.735 Y111.560 E1051.0343
G1 X179.615 Y188.440 E1065.3544
G1 X180.294 Y188.440 E1065.4438
G1 X103.414 Y111.560 E1079.7640
G1 X104.093 Y111.560 E1079.8534
G1 X180.973 Y188.440 E1094.1735
G1 X181.652 Y188.440 E1094.2630
G1 X104.772 Y111.560 E1108.5831
G1 X105.451 Y111.560 E1108.6725
G1 X182.331 Y188.440 E1122.9927
G1 X183.009 Y188.440 E1123.0821
G1 X106.129 Y111.560 E1137.4022
G1 X106.808 Y111.560 E1137.4916
G1 X183.688 Y188.440 E1151.8118
G1 X184.367 Y188.440 E1151.9012
G1 X107.487 Y111.560 E1166.2213
G1 X108.166 Y111.560 E1166.3107
G1 X185.046 Y188.440 E1180.6309
G1 X185.725 Y188.440 E1180.7203
G1 X108.845 Y111.560 E1195.0405
G1 X109.524 Y111.560 E1195.1299
G1 X186.404 Y188.440 E1209.4500
G1 X187.082 Y188.440 E1209.5394
G1 X110.202 Y111.560 E1223.8596
G1 X110.881 Y111.560 E1223.9490
G1 X187.761 Y188.440 E1238.2691
G1 X188.440 Y188.440 E1238.3585
G1 X111.560 Y111.560 E1252.6787
G1 X112.239 Y111.560 E1252.7681
G1 X189.119 Y188.440 E1267.0882
G1 X189.798 Y188.440 E1267.1777
G1 X112.918 Y111.560 E1281.4978
G1 X113.596 Y111.560 E1281.5872
G1 X190.476 Y188.440 E1295.9074
G1 X191.155 Y188.440 E1295.9968
G1 X114.275 Y111.560 E1310.3169
G1 X114.954 Y111.560 E1310.4063
G1 X191.834 Y188.440 E1324.7265
G1 X192.513 Y188.440 E1324.8159
G1 X115.633 Y111.560 E1339.1360
G1 X116.312 Y111.560 E1339.2254
G1 X193.192 Y188.440 E1353.5456
G1 X193.871 Y188.440 E1353.6350
