; G-Code generated by Simplify3D(R) Version 4.1.2
; Apr 30, 2020 at 5:27:57 PM
; Settings Summary
;   processName,Process1
;   applyToModels,CapteurMTOExt partie haute plateau
;   profileName,Alfawise U20 One
;   profileVersion,2020-04-25 19:56:53
;   baseProfile,Creality CR-10(2)
;   printMaterial,PLA
;   printQuality,Medium
;   printExtruders,
;   extruderName,Primary Extruder
;   extruderToolheadNumber,0
;   extruderDiameter,0.4
;   extruderAutoWidth,1
;   extruderWidth,0.48
;   extrusionMultiplier,1.1
;   extruderUseRetract,1
;   extruderRetractionDistance,2.5
;   extruderExtraRestartDistance,0
;   extruderRetractionZLift,0
;   extruderRetractionSpeed,3600
;   extruderUseCoasting,1
;   extruderCoastingDistance,0.2
;   extruderUseWipe,1
;   extruderWipeDistance,4
;   primaryExtruder,0
;   layerHeight,0.2
;   topSolidLayers,5
;   bottomSolidLayers,5
;   perimeterOutlines,2
;   printPerimetersInsideOut,1
;   startPointOption,2
;   startPointOriginX,0
;   startPointOriginY,500
;   sequentialIslands,0
;   spiralVaseMode,0
;   firstLayerHeightPercentage,200
;   firstLayerWidthPercentage,100
;   firstLayerUnderspeed,0.5
;   useRaft,1
;   raftExtruder,0
;   raftTopLayers,1
;   raftBaseLayers,1
;   raftOffset,3
;   raftSeparationDistance,0.14
;   raftTopInfill,80
;   aboveRaftSpeedMultiplier,0.5
;   useSkirt,1
;   skirtExtruder,0
;   skirtLayers,2
;   skirtOutlines,1
;   skirtOffset,2
;   usePrimePillar,0
;   primePillarExtruder,999
;   primePillarWidth,12
;   primePillarLocation,7
;   primePillarSpeedMultiplier,1
;   useOozeShield,0
;   oozeShieldExtruder,999
;   oozeShieldOffset,2
;   oozeShieldOutlines,1
;   oozeShieldSidewallShape,1
;   oozeShieldSidewallAngle,30
;   oozeShieldSpeedMultiplier,1
;   infillExtruder,0
;   internalInfillPattern,Full Honeycomb
;   externalInfillPattern,Rectilinear
;   infillPercentage,20
;   outlineOverlapPercentage,25
;   infillExtrusionWidthPercentage,120
;   minInfillLength,5
;   infillLayerInterval,1
;   internalInfillAngles,0,120,-120
;   overlapInternalInfillAngles,0
;   externalInfillAngles,45,-45
;   generateSupport,1
;   supportExtruder,0
;   supportInfillPercentage,20
;   supportExtraInflation,1
;   supportBaseLayers,2
;   denseSupportExtruder,0
;   denseSupportLayers,0
;   denseSupportInfillPercentage,70
;   supportLayerInterval,1
;   supportHorizontalPartOffset,0.4
;   supportUpperSeparationLayers,2
;   supportLowerSeparationLayers,2
;   supportType,0
;   supportGridSpacing,2
;   maxOverhangAngle,45
;   supportAngles,0,45
;   temperatureName,Primary Extruder,Heated Bed
;   temperatureNumber,0,0
;   temperatureSetpointCount,1,1
;   temperatureSetpointLayers,1,1
;   temperatureSetpointTemperatures,210,50
;   temperatureStabilizeAtStartup,1,1
;   temperatureHeatedBed,0,1
;   fanLayers,1,3,4
;   fanSpeeds,0,80,100
;   blipFanToFullPower,1
;   adjustSpeedForCooling,1
;   minSpeedLayerTime,15
;   minCoolingSpeedSlowdown,80
;   increaseFanForCooling,0
;   minFanLayerTime,45
;   maxCoolingFanSpeed,100
;   increaseFanForBridging,1
;   bridgingFanSpeed,100
;   use5D,1
;   relativeEdistances,0
;   allowEaxisZeroing,1
;   independentExtruderAxes,0
;   includeM10123,0
;   stickySupport,1
;   applyToolheadOffsets,0
;   gcodeXoffset,0
;   gcodeYoffset,0
;   gcodeZoffset,0
;   overrideMachineDefinition,1
;   machineTypeOverride,0
;   strokeXoverride,300
;   strokeYoverride,300
;   strokeZoverride,400
;   originOffsetXoverride,0
;   originOffsetYoverride,0
;   originOffsetZoverride,0
;   homeXdirOverride,-1
;   homeYdirOverride,-1
;   homeZdirOverride,-1
;   flipXoverride,1
;   flipYoverride,-1
;   flipZoverride,1
;   toolheadOffsets,0,0|0,0|0,0|0,0|0,0|0,0
;   overrideFirmwareConfiguration,1
;   firmwareTypeOverride,RepRap (Marlin/Repetier/Sprinter)
;   GPXconfigOverride,r2
;   baudRateOverride,250000
;   overridePrinterModels,1
;   printerModelsOverride
;   startingGcode,G28 ; home all axes,G1 Z5 F3000 ; lift,G1 X20 Y20 F1500 ; avoid binder clips,G1 Z0.2 F3000 ; get ready to prime,G92 E0 ; reset extrusion distance,G1 X120 E10 F600 ; prime nozzle,G1 X150 F5000 ; quick wipe,M117 MADEINFCK
;   layerChangeGcode,
;   retractionGcode,
;   toolChangeGcode,
;   endingGcode,G28 X0 ; home x axis,M106 S0 ; turn off cooling fan,M104 S0 ; turn off extruder,M140 S0 ; turn off bed,M84 ; disable motors,M117 IMPRESSION TERMINEE
;   exportFileFormat,gcode
;   celebration,0
;   celebrationSong,Star Wars
;   postProcessing,
;   defaultSpeed,3600
;   outlineUnderspeed,0.6
;   solidInfillUnderspeed,0.8
;   supportUnderspeed,0.8
;   rapidXYspeed,7200
;   rapidZspeed,1002
;   minBridgingArea,50
;   bridgingExtraInflation,0
;   bridgingExtrusionMultiplier,0.85
;   bridgingSpeedMultiplier,1.05
;   useFixedBridgingAngle,0
;   fixedBridgingAngle,0
;   applyBridgingToPerimeters,0
;   filamentDiameters,1.75|1.75|1.75|1.75|1.75|1.75
;   filamentPricesPerKg,30|46|46|46|46|46
;   filamentDensities,1.25|1.25|1.25|1.25|1.25|1.25
;   useMinPrintHeight,0
;   minPrintHeight,31
;   useMaxPrintHeight,0
;   maxPrintHeight,9
;   useDiaphragm,0
;   diaphragmLayerInterval,20
;   robustSlicing,1
;   mergeAllIntoSolid,0
;   onlyRetractWhenCrossingOutline,1
;   retractBetweenLayers,1
;   useRetractionMinTravel,0
;   retractionMinTravel,3
;   retractWhileWiping,0
;   onlyWipeOutlines,1
;   avoidCrossingOutline,0
;   maxMovementDetourFactor,3
;   toolChangeRetractionDistance,12
;   toolChangeExtraRestartDistance,-0.5
;   toolChangeRetractionSpeed,600
;   externalThinWallType,0
;   internalThinWallType,2
;   thinWallAllowedOverlapPercentage,20
;   singleExtrusionMinLength,1
;   singleExtrusionMinPrintingWidthPercentage,50
;   singleExtrusionMaxPrintingWidthPercentage,200
;   singleExtrusionEndpointExtension,0.3
;   horizontalSizeCompensation,0
G90
M82
M106 S0
M140 S50
M190 S50
M104 S210 T0
M109 S210 T0
G28 ; home all axes
G1 Z5 F3000 ; lift
G1 X20 Y20 F1500 ; avoid binder clips
G1 Z0.2 F3000 ; get ready to prime
G92 E0 ; reset extrusion distance
G1 X120 E10 F600 ; prime nozzle
G1 X150 F5000 ; quick wipe
M117 MADEINFCK
; process Process1
; layer 1, Z = 1.000
T0
G92 E0.0000
G1 E-2.5000 F3600
; feature skirt
; tool H1.000 W0.480
G1 Z1.000 F1002
G1 X61.989 Y74.601 F7200
G1 E0.0000 F3600
G92 E0.0000
G1 X62.812 Y74.260 E0.1956 F1800
G1 X237.188 Y74.260 E38.4742
G1 X238.012 Y74.601 E38.6698
G1 X240.399 Y76.989 E39.4110
G1 X240.740 Y77.812 E39.6066
G1 X240.740 Y222.188 E71.2997
G1 X240.399 Y223.012 E71.4953
G1 X238.012 Y225.399 E72.2365
G1 X237.188 Y225.740 E72.4321
G1 X62.812 Y225.740 E110.7106
G1 X61.989 Y225.399 E110.9063
G1 X59.601 Y223.012 E111.6474
G1 X59.260 Y222.188 E111.8431
G1 X59.260 Y77.812 E143.5361
G1 X59.601 Y76.989 E143.7317
G1 X61.989 Y74.601 E144.4729
G92 E0.0000
G1 E-2.5000 F3600
; feature raft
; tool H1.000 W0.800
G1 X63.423 Y76.900 F7200
G1 E0.0000 F3600
G92 E0.0000
G1 X236.577 Y76.900 E63.3504 F450
G1 X238.100 Y78.423 E64.1384
G1 X238.100 Y221.577 E116.5129
G1 X236.577 Y223.100 E117.3009
G1 X63.423 Y223.100 E180.6513
G1 X61.900 Y221.577 E181.4393
G1 X61.900 Y78.423 E233.8138
G1 X63.282 Y77.041 E234.5287
G1 X63.423 Y76.900 F450
G92 E0.0000
G1 E-2.5000 F3600
G1 X132.600 Y130.235 F7200
G1 E0.0000 F3600
G92 E0.0000
G1 X132.600 Y177.252 E17.2015 F450
G1 X167.400 Y177.252 E29.9334
G1 X167.400 Y130.235 E47.1349
G1 X132.800 Y130.235 E59.7937
G1 X132.600 Y130.235 F450
G92 E0.0000
G1 E-2.5000 F3600
G1 X168.000 Y134.000 F7200
G1 E0.0000 F3600
G92 E0.0000
G1 X237.500 Y134.000 E25.4274 F450
G1 X237.500 Y136.286 E26.2636
G1 X168.000 Y136.286 E51.6910
G1 X168.000 Y138.571 E52.5273
G1 X237.500 Y138.571 E77.9546
G1 X237.500 Y140.857 E78.7909
G1 X168.000 Y140.857 E104.2183
G1 X168.000 Y143.143 E105.0545
G1 X237.500 Y143.143 E130.4819
G1 X237.500 Y145.429 E131.3181
G1 X168.000 Y145.429 E156.7455
G1 X168.000 Y147.714 E157.5818
G1 X237.500 Y147.714 E183.0091
G1 X237.500 Y150.000 E183.8454
G1 X168.000 Y150.000 E209.2728
G1 X168.000 Y152.286 E210.1090
G1 X237.500 Y152.286 E235.5364
G1 X237.500 Y154.571 E236.3727
G1 X168.000 Y154.571 E261.8000
G1 X168.000 Y156.857 E262.6363
G1 X237.500 Y156.857 E288.0637
G1 X237.500 Y159.143 E288.8999
G1 X168.000 Y159.143 E314.3273
G1 X168.000 Y161.429 E315.1635
G1 X237.500 Y161.429 E340.5909
G1 X237.500 Y163.714 E341.4272
G1 X168.000 Y163.714 E366.8545
G1 X168.000 Y166.000 E367.6908
G1 X237.500 Y166.000 E393.1182
G1 X237.500 Y168.286 E393.9544
G1 X168.000 Y168.286 E419.3818
G1 X168.000 Y170.571 E420.2180
G1 X237.500 Y170.571 E445.6454
G1 X237.500 Y172.857 E446.4817
G1 X168.000 Y172.857 E471.9091
G1 X168.000 Y175.143 E472.7453
G1 X237.500 Y175.143 E498.1727
G1 X237.500 Y177.429 E499.0089
G1 X168.200 Y177.429 E524.3631
G1 X168.000 Y177.429 F450
G92 E0.0000
G1 E-2.5000 F3600
G1 X237.500 Y220.857 F7200
G1 E0.0000 F3600
G92 E0.0000
G1 X62.500 Y220.857 E64.0258 F450
G1 X62.500 Y218.571 E64.8620
G1 X237.500 Y218.571 E128.8878
G1 X237.500 Y216.286 E129.7240
G1 X62.500 Y216.286 E193.7498
G1 X62.500 Y214.000 E194.5860
G1 X237.500 Y214.000 E258.6118
G1 X237.500 Y211.714 E259.4481
G1 X62.500 Y211.714 E323.4738
G1 X62.500 Y209.429 E324.3101
G1 X237.500 Y209.429 E388.3358
G1 X237.500 Y207.143 E389.1721
G1 X62.500 Y207.143 E453.1978
G1 X62.500 Y204.857 E454.0341
G1 X237.500 Y204.857 E518.0599
G1 X237.500 Y202.571 E518.8961
G1 X62.500 Y202.571 E582.9219
G1 X62.500 Y200.286 E583.7581
G1 X237.500 Y200.286 E647.7839
G1 X237.500 Y198.000 E648.6201
G1 X62.500 Y198.000 E712.6459
G1 X62.500 Y195.714 E713.4822
G1 X237.500 Y195.714 E777.5079
G1 X237.500 Y193.429 E778.3442
G1 X62.500 Y193.429 E842.3699
G1 X62.500 Y191.143 E843.2062
G1 X237.500 Y191.143 E907.2320
G1 X237.500 Y188.857 E908.0682
G1 X62.500 Y188.857 E972.0940
G1 X62.500 Y186.571 E972.9302
G1 X237.500 Y186.571 E1036.9560
G1 X237.500 Y184.286 E1037.7922
G1 X62.500 Y184.286 E1101.8180
G1 X62.500 Y182.000 E1102.6543
G1 X237.500 Y182.000 E1166.6800
G1 X237.500 Y179.714 E1167.5163
G1 X62.500 Y179.714 E1231.5420
G1 X62.500 Y177.429 E1232.3783
G1 X132.000 Y177.429 E1257.8057
G1 X132.000 Y175.143 E1258.6419
G1 X62.500 Y175.143 E1284.0693
G1 X62.500 Y172.857 E1284.9055
G1 X132.000 Y172.857 E1310.3329
G1 X132.000 Y170.571 E1311.1692
G1 X62.500 Y170.571 E1336.5965
G1 X62.500 Y168.286 E1337.4328
G1 X132.000 Y168.286 E1362.8602
G1 X132.000 Y166.000 E1363.6964
G1 X62.500 Y166.000 E1389.1238
G1 X62.500 Y163.714 E1389.9600
G1 X132.000 Y163.714 E1415.3874
G1 X132.000 Y161.429 E1416.2237
G1 X62.500 Y161.429 E1441.6511
G1 X62.500 Y159.143 E1442.4873
G1 X132.000 Y159.143 E1467.9147
G1 X132.000 Y156.857 E1468.7509
G1 X62.500 Y156.857 E1494.1783
G1 X62.500 Y154.571 E1495.0146
G1 X132.000 Y154.571 E1520.4419
G1 X132.000 Y152.286 E1521.2782
G1 X62.500 Y152.286 E1546.7056
G1 X62.500 Y150.000 E1547.5418
G1 X132.000 Y150.000 E1572.9692
G1 X132.000 Y147.714 E1573.8054
G1 X62.500 Y147.714 E1599.2328
G1 X62.500 Y145.429 E1600.0691
G1 X132.000 Y145.429 E1625.4964
G1 X132.000 Y143.143 E1626.3327
G1 X62.500 Y143.143 E1651.7601
G1 X62.500 Y140.857 E1652.5963
G1 X132.000 Y140.857 E1678.0237
G1 X132.000 Y138.571 E1678.8600
G1 X62.500 Y138.571 E1704.2873
G1 X62.500 Y136.286 E1705.1236
G1 X132.000 Y136.286 E1730.5510
G1 X132.000 Y134.000 E1731.3872
G1 X62.500 Y134.000 E1756.8146
G1 X62.500 Y131.714 E1757.6508
G1 X132.000 Y131.714 E1783.0782
G1 X132.000 Y129.635 E1783.8388
G1 X168.000 Y129.635 E1797.0098
G1 X168.000 Y131.714 E1797.7703
G1 X237.500 Y131.714 E1823.1977
G1 X237.500 Y129.429 E1824.0340
G1 X62.500 Y129.429 E1888.0597
G1 X62.500 Y127.143 E1888.8960
G1 X237.500 Y127.143 E1952.9217
G1 X237.500 Y124.857 E1953.7580
G1 X62.500 Y124.857 E2017.7838
G1 X62.500 Y122.571 E2018.6200
G1 X237.500 Y122.571 E2082.6458
G1 X237.500 Y120.286 E2083.4820
G1 X62.500 Y120.286 E2147.5078
G1 X62.500 Y118.000 E2148.3440
G1 X237.500 Y118.000 E2212.3698
G1 X237.500 Y115.714 E2213.2061
G1 X62.500 Y115.714 E2277.2318
G1 X62.500 Y113.429 E2278.0681
G1 X237.500 Y113.429 E2342.0938
G1 X237.500 Y111.143 E2342.9301
G1 X62.500 Y111.143 E2406.9558
G1 X62.500 Y108.857 E2407.7921
G1 X237.500 Y108.857 E2471.8179
G1 X237.500 Y106.571 E2472.6541
G1 X62.500 Y106.571 E2536.6799
G1 X62.500 Y104.286 E2537.5161
G1 X237.500 Y104.286 E2601.5419
G1 X237.500 Y102.000 E2602.3781
G1 X62.500 Y102.000 E2666.4039
G1 X62.500 Y99.714 E2667.2402
G1 X237.500 Y99.714 E2731.2659
G1 X237.500 Y97.429 E2732.1022
G1 X62.500 Y97.429 E2796.1279
G1 X62.500 Y95.143 E2796.9642
G1 X237.500 Y95.143 E2860.9899
G1 X237.500 Y92.857 E2861.8262
G1 X62.500 Y92.857 E2925.8520
G1 X62.500 Y90.571 E2926.6882
G1 X237.500 Y90.571 E2990.7140
G1 X237.500 Y88.286 E2991.5502
G1 X62.500 Y88.286 E3055.5760
G1 X62.500 Y86.000 E3056.4122
G1 X237.500 Y86.000 E3120.4380
G1 X237.500 Y83.714 E3121.2743
G1 X62.500 Y83.714 E3185.3000
G1 X62.500 Y81.429 E3186.1363
G1 X237.500 Y81.429 E3250.1620
G1 X237.500 Y79.143 E3250.9983
G1 X62.700 Y79.143 E3314.9509
G1 X62.500 Y79.143 F450
G92 E0.0000
G1 E-2.5000 F3600
; layer 2, Z = 1.222
; feature skirt
; tool H0.222 W0.480
G1 Z1.222 F1002
G1 X59.260 Y77.812 F7200
G1 E0.0000 F3600
G92 E0.0000
G1 X59.601 Y76.989 E0.0435 F3600
G1 X61.989 Y74.601 E0.2082
G1 X62.812 Y74.260 E0.2516
G1 X237.188 Y74.260 E8.7580
G1 X238.012 Y74.601 E8.8015
G1 X240.399 Y76.989 E8.9662
G1 X240.740 Y77.812 E9.0096
G1 X240.740 Y222.188 E16.0525
G1 X240.399 Y223.012 E16.0960
G1 X238.012 Y225.399 E16.2607
G1 X237.188 Y225.740 E16.3042
G1 X62.812 Y225.740 E24.8105
G1 X61.989 Y225.399 E24.8540
G1 X59.601 Y223.012 E25.0187
G1 X59.260 Y222.188 E25.0622
G1 X59.260 Y77.812 E32.1051
G92 E0.0000
G1 E-2.5000 F3600
; feature raft
; tool H0.222 W0.400
G1 X61.700 Y78.494 F7200
G1 E0.0000 F3600
G92 E0.0000
G1 X63.494 Y76.700 E0.1031 F2700
G1 X64.201 Y76.700 E0.1319
G1 X61.700 Y79.201 E0.2757
G1 X61.700 Y79.908 E0.3044
G1 X64.908 Y76.700 E0.4888
G1 X65.615 Y76.700 E0.5176
G1 X61.700 Y80.615 E0.7427
G1 X61.700 Y81.322 E0.7714
G1 X66.322 Y76.700 E1.0371
G1 X67.029 Y76.700 E1.0659
G1 X61.700 Y82.029 E1.3723
G1 X61.700 Y82.737 E1.4010
G1 X67.737 Y76.700 E1.7481
G1 X68.444 Y76.700 E1.7768
G1 X61.700 Y83.444 E2.1645
G1 X61.700 Y84.151 E2.1932
G1 X69.151 Y76.700 E2.6216
G1 X69.858 Y76.700 E2.6503
G1 X61.700 Y84.858 E3.1193
G1 X61.700 Y85.565 E3.1481
G1 X70.565 Y76.700 E3.6577
G1 X71.272 Y76.700 E3.6864
G1 X61.700 Y86.272 E4.2367
G1 X61.700 Y86.979 E4.2655
G1 X71.979 Y76.700 E4.8564
G1 X72.686 Y76.700 E4.8852
G1 X61.700 Y87.686 E5.5168
G1 X61.700 Y88.393 E5.5455
G1 X73.393 Y76.700 E6.2178
G1 X74.101 Y76.700 E6.2465
G1 X61.700 Y89.101 E6.9594
G1 X61.700 Y89.808 E6.9882
G1 X74.808 Y76.700 E7.7417
G1 X75.515 Y76.700 E7.7705
G1 X61.700 Y90.515 E8.5647
G1 X61.700 Y91.222 E8.5934
G1 X76.222 Y76.700 E9.4283
G1 X76.929 Y76.700 E9.4570
G1 X61.700 Y91.929 E10.3325
G1 X61.700 Y92.636 E10.3613
G1 X77.636 Y76.700 E11.2774
G1 X78.343 Y76.700 E11.3062
G1 X61.700 Y93.343 E12.2630
G1 X61.700 Y94.050 E12.2917
G1 X79.050 Y76.700 E13.2892
G1 X79.757 Y76.700 E13.3179
G1 X61.700 Y94.757 E14.3560
G1 X61.700 Y95.464 E14.3848
G1 X80.464 Y76.700 E15.4635
G1 X81.172 Y76.700 E15.4923
G1 X61.700 Y96.172 E16.6117
G1 X61.700 Y96.879 E16.6404
G1 X81.879 Y76.700 E17.8005
G1 X82.586 Y76.700 E17.8292
G1 X61.700 Y97.586 E19.0299
G1 X61.700 Y98.293 E19.0587
G1 X83.293 Y76.700 E20.3001
G1 X84.000 Y76.700 E20.3288
G1 X61.700 Y99.000 E21.6108
G1 X61.700 Y99.707 E21.6396
G1 X84.707 Y76.700 E22.9622
G1 X85.414 Y76.700 E22.9910
G1 X61.700 Y100.414 E24.3543
G1 X61.700 Y101.121 E24.3830
G1 X86.121 Y76.700 E25.7870
G1 X86.828 Y76.700 E25.8158
G1 X61.700 Y101.828 E27.2604
G1 X61.700 Y102.536 E27.2891
G1 X87.536 Y76.700 E28.7744
G1 X88.243 Y76.700 E28.8031
G1 X61.700 Y103.243 E30.3291
G1 X61.700 Y103.950 E30.3578
G1 X88.950 Y76.700 E31.9244
G1 X89.657 Y76.700 E31.9531
G1 X61.700 Y104.657 E33.5604
G1 X61.700 Y105.364 E33.5891
G1 X90.364 Y76.700 E35.2370
G1 X91.071 Y76.700 E35.2657
G1 X61.700 Y106.071 E36.9543
G1 X61.700 Y106.778 E36.9830
G1 X91.778 Y76.700 E38.7122
G1 X92.485 Y76.700 E38.7409
G1 X61.700 Y107.485 E40.5108
G1 X61.700 Y108.192 E40.5395
G1 X93.192 Y76.700 E42.3500
G1 X93.899 Y76.700 E42.3787
G1 X61.700 Y108.899 E44.2299
G1 X61.700 Y109.607 E44.2586
G1 X94.607 Y76.700 E46.1504
G1 X95.314 Y76.700 E46.1792
