; G-Code generated by Simplify3D(R) Version 4.1.2
; May 1, 2020 at 5:59:04 PM
; Settings Summary
;   processName,Process1
;   applyToModels,CapteurMTOExt partie basse
;   profileName,Alfawise U20 One (modified)
;   profileVersion,2020-04-25 19:56:53
;   baseProfile,Creality CR-10(2)
;   printMaterial,PLA
;   printQuality,Medium
;   printExtruders,
;   extruderName,Primary Extruder
;   extruderToolheadNumber,0
;   extruderDiameter,0.4
;   extruderAutoWidth,1
;   extruderWidth,0.48
;   extrusionMultiplier,1.1
;   extruderUseRetract,1
;   extruderRetractionDistance,2.5
;   extruderExtraRestartDistance,0
;   extruderRetractionZLift,0
;   extruderRetractionSpeed,3600
;   extruderUseCoasting,1
;   extruderCoastingDistance,0.2
;   extruderUseWipe,1
;   extruderWipeDistance,4
;   primaryExtruder,0
;   layerHeight,0.2
;   topSolidLayers,5
;   bottomSolidLayers,5
;   perimeterOutlines,2
;   printPerimetersInsideOut,1
;   startPointOption,2
;   startPointOriginX,0
;   startPointOriginY,500
;   sequentialIslands,0
;   spiralVaseMode,0
;   firstLayerHeightPercentage,200
;   firstLayerWidthPercentage,100
;   firstLayerUnderspeed,0.5
;   useRaft,0
;   raftExtruder,0
;   raftTopLayers,1
;   raftBaseLayers,1
;   raftOffset,3
;   raftSeparationDistance,0.14
;   raftTopInfill,80
;   aboveRaftSpeedMultiplier,0.5
;   useSkirt,1
;   skirtExtruder,0
;   skirtLayers,2
;   skirtOutlines,1
;   skirtOffset,2
;   usePrimePillar,0
;   primePillarExtruder,999
;   primePillarWidth,12
;   primePillarLocation,7
;   primePillarSpeedMultiplier,1
;   useOozeShield,0
;   oozeShieldExtruder,999
;   oozeShieldOffset,2
;   oozeShieldOutlines,1
;   oozeShieldSidewallShape,1
;   oozeShieldSidewallAngle,30
;   oozeShieldSpeedMultiplier,1
;   infillExtruder,0
;   internalInfillPattern,Full Honeycomb
;   externalInfillPattern,Rectilinear
;   infillPercentage,20
;   outlineOverlapPercentage,25
;   infillExtrusionWidthPercentage,120
;   minInfillLength,5
;   infillLayerInterval,1
;   internalInfillAngles,0,120,-120
;   overlapInternalInfillAngles,0
;   externalInfillAngles,45,-45
;   generateSupport,1
;   supportExtruder,0
;   supportInfillPercentage,20
;   supportExtraInflation,1
;   supportBaseLayers,2
;   denseSupportExtruder,0
;   denseSupportLayers,0
;   denseSupportInfillPercentage,70
;   supportLayerInterval,1
;   supportHorizontalPartOffset,0.4
;   supportUpperSeparationLayers,2
;   supportLowerSeparationLayers,2
;   supportType,0
;   supportGridSpacing,2
;   maxOverhangAngle,45
;   supportAngles,0,45
;   temperatureName,Primary Extruder,Heated Bed
;   temperatureNumber,0,0
;   temperatureSetpointCount,1,1
;   temperatureSetpointLayers,1,1
;   temperatureSetpointTemperatures,210,50
;   temperatureStabilizeAtStartup,1,1
;   temperatureHeatedBed,0,1
;   fanLayers,1,3,4
;   fanSpeeds,0,80,100
;   blipFanToFullPower,1
;   adjustSpeedForCooling,1
;   minSpeedLayerTime,15
;   minCoolingSpeedSlowdown,80
;   increaseFanForCooling,0
;   minFanLayerTime,45
;   maxCoolingFanSpeed,100
;   increaseFanForBridging,1
;   bridgingFanSpeed,100
;   use5D,1
;   relativeEdistances,0
;   allowEaxisZeroing,1
;   independentExtruderAxes,0
;   includeM10123,0
;   stickySupport,1
;   applyToolheadOffsets,0
;   gcodeXoffset,0
;   gcodeYoffset,0
;   gcodeZoffset,0
;   overrideMachineDefinition,1
;   machineTypeOverride,0
;   strokeXoverride,300
;   strokeYoverride,300
;   strokeZoverride,400
;   originOffsetXoverride,0
;   originOffsetYoverride,0
;   originOffsetZoverride,0
;   homeXdirOverride,-1
;   homeYdirOverride,-1
;   homeZdirOverride,-1
;   flipXoverride,1
;   flipYoverride,-1
;   flipZoverride,1
;   toolheadOffsets,0,0|0,0|0,0|0,0|0,0|0,0
;   overrideFirmwareConfiguration,1
;   firmwareTypeOverride,RepRap (Marlin/Repetier/Sprinter)
;   GPXconfigOverride,r2
;   baudRateOverride,250000
;   overridePrinterModels,1
;   printerModelsOverride
;   startingGcode,G28 ; home all axes,G1 Z5 F3000 ; lift,G1 X20 Y20 F1500 ; avoid binder clips,G1 Z0.2 F3000 ; get ready to prime,G92 E0 ; reset extrusion distance,G1 X120 E10 F600 ; prime nozzle,G1 X150 F5000 ; quick wipe,M117 MADEINFCK
;   layerChangeGcode,
;   retractionGcode,
;   toolChangeGcode,
;   endingGcode,G28 X0 ; home x axis,M106 S0 ; turn off cooling fan,M104 S0 ; turn off extruder,M140 S0 ; turn off bed,M84 ; disable motors,M117 IMPRESSION TERMINEE
;   exportFileFormat,gcode
;   celebration,0
;   celebrationSong,Star Wars
;   postProcessing,
;   defaultSpeed,3600
;   outlineUnderspeed,0.6
;   solidInfillUnderspeed,0.8
;   supportUnderspeed,0.8
;   rapidXYspeed,7200
;   rapidZspeed,1002
;   minBridgingArea,50
;   bridgingExtraInflation,0
;   bridgingExtrusionMultiplier,0.85
;   bridgingSpeedMultiplier,1.05
;   useFixedBridgingAngle,0
;   fixedBridgingAngle,0
;   applyBridgingToPerimeters,0
;   filamentDiameters,1.75|1.75|1.75|1.75|1.75|1.75
;   filamentPricesPerKg,30|46|46|46|46|46
;   filamentDensities,1.25|1.25|1.25|1.25|1.25|1.25
;   useMinPrintHeight,0
;   minPrintHeight,31
;   useMaxPrintHeight,0
;   maxPrintHeight,9
;   useDiaphragm,0
;   diaphragmLayerInterval,20
;   robustSlicing,1
;   mergeAllIntoSolid,0
;   onlyRetractWhenCrossingOutline,1
;   retractBetweenLayers,1
;   useRetractionMinTravel,0
;   retractionMinTravel,3
;   retractWhileWiping,0
;   onlyWipeOutlines,1
;   avoidCrossingOutline,0
;   maxMovementDetourFactor,3
;   toolChangeRetractionDistance,12
;   toolChangeExtraRestartDistance,-0.5
;   toolChangeRetractionSpeed,600
;   externalThinWallType,0
;   internalThinWallType,2
;   thinWallAllowedOverlapPercentage,20
;   singleExtrusionMinLength,1
;   singleExtrusionMinPrintingWidthPercentage,50
;   singleExtrusionMaxPrintingWidthPercentage,200
;   singleExtrusionEndpointExtension,0.3
;   horizontalSizeCompensation,0
G90
M82
M106 S0
M140 S50
M190 S50
M104 S210 T0
M109 S210 T0
G28 ; home all axes
G1 Z5 F3000 ; lift
G1 X20 Y20 F1500 ; avoid binder clips
G1 Z0.2 F3000 ; get ready to prime
G92 E0 ; reset extrusion distance
G1 X120 E10 F600 ; prime nozzle
G1 X150 F5000 ; quick wipe
M117 MADEINFCK
; process Process1
; layer 1, Z = 0.400
T0
G92 E0.0000
G1 E-2.5000 F3600
; feature skirt
; tool H0.400 W0.480
G1 Z0.400 F1002
G1 X89.072 Y107.760 F7200
G1 E0.0000 F3600
G92 E0.0000
G1 X210.928 Y107.760 E10.6998 F1800
G1 X212.240 Y109.072 E10.8627
G1 X212.240 Y190.928 E18.0502
G1 X210.928 Y192.240 E18.2131
G1 X89.072 Y192.240 E28.9129
G1 X87.760 Y190.928 E29.0758
G1 X87.760 Y109.072 E36.2633
G1 X89.072 Y107.760 E36.4262
G92 E0.0000
G1 E-2.5000 F3600
; feature inner perimeter
G1 X90.720 Y110.720 F7200
G1 E0.0000 F3600
G92 E0.0000
G1 X209.280 Y110.720 E10.4104 F1440
G1 X209.280 Y189.280 E17.3085
G1 X90.720 Y189.280 E27.7188
G1 X90.720 Y110.920 E34.5994
G1 X90.720 Y110.720 F1440
; feature outer perimeter
G1 X90.240 Y110.240 F7200
G92 E0.0000
G1 X209.760 Y110.240 E10.4947 F1080
G1 X209.760 Y189.760 E17.4771
G1 X90.240 Y189.760 E27.9717
G1 X90.240 Y110.440 E34.9366
G1 X90.240 Y110.240 F1080
G1 X94.240 Y110.240 F1080
; feature solid layer
G1 X91.170 Y188.920 F7200
G92 E0.0000
G1 X91.080 Y188.830 E0.0111 F1440
G1 X91.080 Y188.152 E0.0707
G1 X91.848 Y188.920 E0.1661
G1 X92.527 Y188.920 E0.2258
G1 X91.080 Y187.473 E0.4055
G1 X91.080 Y186.794 E0.4651
G1 X93.206 Y188.920 E0.7291
G1 X93.885 Y188.920 E0.7887
G1 X91.080 Y186.115 E1.1370
G1 X91.080 Y185.436 E1.1966
G1 X94.564 Y188.920 E1.6292
G1 X95.243 Y188.920 E1.6888
G1 X91.080 Y184.757 E2.2057
G1 X91.080 Y184.079 E2.2653
G1 X95.921 Y188.920 E2.8665
G1 X96.600 Y188.920 E2.9261
G1 X91.080 Y183.400 E3.6115
G1 X91.080 Y182.721 E3.6712
G1 X97.279 Y188.920 E4.4409
G1 X97.958 Y188.920 E4.5005
G1 X91.080 Y182.042 E5.3546
G1 X91.080 Y181.363 E5.4142
G1 X98.637 Y188.920 E6.3526
G1 X99.315 Y188.920 E6.4122
G1 X91.080 Y180.685 E7.4348
G1 X91.080 Y180.006 E7.4944
G1 X99.994 Y188.920 E8.6014
G1 X100.673 Y188.920 E8.6610
G1 X91.080 Y179.327 E9.8522
G1 X91.080 Y178.648 E9.9118
G1 X101.352 Y188.920 E11.1874
G1 X102.031 Y188.920 E11.2470
G1 X91.080 Y177.969 E12.6068
G1 X91.080 Y177.290 E12.6664
G1 X102.710 Y188.920 E14.1106
G1 X103.388 Y188.920 E14.1702
G1 X91.080 Y176.612 E15.6986
G1 X91.080 Y175.933 E15.7582
G1 X104.067 Y188.920 E17.3709
G1 X104.746 Y188.920 E17.4305
G1 X91.080 Y175.254 E19.1275
G1 X91.080 Y174.575 E19.1871
G1 X105.425 Y188.920 E20.9684
G1 X106.104 Y188.920 E21.0280
G1 X91.080 Y173.896 E22.8936
G1 X91.080 Y173.218 E22.9532
G1 X106.782 Y188.920 E24.9031
G1 X107.461 Y188.920 E24.9627
G1 X91.080 Y172.539 E26.9969
G1 X91.080 Y171.860 E27.0565
G1 X108.140 Y188.920 E29.1750
G1 X108.819 Y188.920 E29.2346
G1 X91.080 Y171.181 E31.4374
G1 X91.080 Y170.502 E31.4970
G1 X109.498 Y188.920 E33.7841
G1 X110.177 Y188.920 E33.8437
G1 X91.080 Y169.823 E36.2151
G1 X91.080 Y169.145 E36.2747
G1 X110.855 Y188.920 E38.7303
G1 X111.534 Y188.920 E38.7899
G1 X91.080 Y168.466 E41.3299
G1 X91.080 Y167.787 E41.3895
G1 X112.213 Y188.920 E44.0138
G1 X112.892 Y188.920 E44.0734
G1 X91.080 Y167.108 E46.7819
G1 X91.080 Y166.429 E46.8415
G1 X113.571 Y188.920 E49.6344
G1 X114.250 Y188.920 E49.6940
G1 X91.080 Y165.750 E52.5711
G1 X91.080 Y165.072 E52.6307
G1 X114.928 Y188.920 E55.5921
G1 X115.607 Y188.920 E55.6517
G1 X91.080 Y164.393 E58.6975
G1 X91.080 Y163.714 E58.7571
G1 X116.286 Y188.920 E61.8871
G1 X116.965 Y188.920 E61.9467
G1 X91.080 Y163.035 E65.1610
G1 X91.080 Y162.356 E65.2206
G1 X117.644 Y188.920 E68.5192
G1 X118.322 Y188.920 E68.5788
G1 X91.080 Y161.678 E71.9617
G1 X91.080 Y160.999 E72.0213
G1 X119.001 Y188.920 E75.4885
G1 X119.680 Y188.920 E75.5481
G1 X91.080 Y160.320 E79.0996
G1 X91.080 Y159.641 E79.1592
G1 X120.359 Y188.920 E82.7950
G1 X121.038 Y188.920 E82.8546
G1 X91.080 Y158.962 E86.5747
G1 X91.080 Y158.283 E86.6343
G1 X121.717 Y188.920 E90.4387
G1 X122.395 Y188.920 E90.4983
G1 X91.080 Y157.605 E94.3869
G1 X91.080 Y156.926 E94.4466
G1 X123.074 Y188.920 E98.4195
G1 X123.753 Y188.920 E98.4791
G1 X91.080 Y156.247 E102.5364
G1 X91.080 Y155.568 E102.5960
G1 X124.432 Y188.920 E106.7375
G1 X125.111 Y188.920 E106.7971
G1 X91.080 Y154.889 E111.0230
G1 X91.080 Y154.210 E111.0826
G1 X125.790 Y188.920 E115.3927
G1 X126.468 Y188.920 E115.4523
G1 X91.080 Y153.532 E119.8468
G1 X91.080 Y152.853 E119.9064
G1 X127.147 Y188.920 E124.3851
G1 X127.826 Y188.920 E124.4447
G1 X91.080 Y152.174 E129.0077
G1 X91.080 Y151.495 E129.0673
G1 X128.505 Y188.920 E133.7147
G1 X129.184 Y188.920 E133.7743
G1 X91.080 Y150.816 E138.5059
G1 X91.080 Y150.138 E138.5655
G1 X129.862 Y188.920 E143.3814
G1 X130.541 Y188.920 E143.4410
G1 X91.080 Y149.459 E148.3412
G1 X91.080 Y148.780 E148.4008
G1 X131.220 Y188.920 E153.3853
G1 X131.899 Y188.920 E153.4449
G1 X91.080 Y148.101 E158.5137
G1 X91.080 Y147.422 E158.5733
G1 X132.578 Y188.920 E163.7264
G1 X133.257 Y188.920 E163.7860
G1 X91.080 Y146.743 E169.0234
G1 X91.080 Y146.065 E169.0830
G1 X133.935 Y188.920 E174.4047
G1 X134.614 Y188.920 E174.4643
G1 X91.080 Y145.386 E179.8702
G1 X91.080 Y144.707 E179.9298
G1 X135.293 Y188.920 E185.4201
G1 X135.972 Y188.920 E185.4797
G1 X91.080 Y144.028 E191.0543
G1 X91.080 Y143.349 E191.1139
G1 X136.651 Y188.920 E196.7727
G1 X137.330 Y188.920 E196.8323
G1 X91.080 Y142.670 E202.5755
G1 X91.080 Y141.992 E202.6351
G1 X138.008 Y188.920 E208.4625
G1 X138.687 Y188.920 E208.5221
G1 X91.080 Y141.313 E214.4339
G1 X91.080 Y140.634 E214.4935
G1 X139.366 Y188.920 E220.4895
G1 X140.045 Y188.920 E220.5491
G1 X91.080 Y139.955 E226.6294
G1 X91.080 Y139.276 E226.6891
G1 X140.724 Y188.920 E232.8537
G1 X141.402 Y188.920 E232.9133
G1 X91.080 Y138.598 E239.1622
G1 X91.080 Y137.919 E239.2218
G1 X142.081 Y188.920 E245.5550
G1 X142.760 Y188.920 E245.6146
G1 X91.080 Y137.240 E252.0321
G1 X91.080 Y136.561 E252.0917
G1 X143.439 Y188.920 E258.5935
G1 X144.118 Y188.920 E258.6531
G1 X91.080 Y135.882 E265.2392
G1 X91.080 Y135.203 E265.2988
G1 X144.797 Y188.920 E271.9692
G1 X145.475 Y188.920 E272.0288
G1 X91.080 Y134.525 E278.7835
G1 X91.080 Y133.846 E278.8431
G1 X146.154 Y188.920 E285.6821
G1 X146.833 Y188.920 E285.7417
G1 X91.080 Y133.167 E292.6650
G1 X91.080 Y132.488 E292.7246
G1 X147.512 Y188.920 E299.7321
G1 X148.191 Y188.920 E299.7917
G1 X91.080 Y131.809 E306.8836
G1 X91.080 Y131.131 E306.9432
G1 X148.869 Y188.920 E314.1193
G1 X149.548 Y188.920 E314.1790
G1 X91.080 Y130.452 E321.4394
G1 X91.080 Y129.773 E321.4990
G1 X150.227 Y188.920 E328.8437
G1 X150.906 Y188.920 E328.9034
G1 X91.080 Y129.094 E336.3324
G1 X91.080 Y128.415 E336.3920
G1 X151.585 Y188.920 E343.9053
G1 X152.264 Y188.920 E343.9649
G1 X91.080 Y127.736 E351.5626
G1 X91.080 Y127.058 E351.6222
G1 X152.942 Y188.920 E359.3041
G1 X153.621 Y188.920 E359.3637
G1 X91.080 Y126.379 E367.1299
G1 X91.080 Y125.700 E367.1895
G1 X154.300 Y188.920 E375.0400
G1 X154.979 Y188.920 E375.0996
G1 X91.080 Y125.021 E383.0344
G1 X91.080 Y124.342 E383.0940
G1 X155.658 Y188.920 E391.1131
G1 X156.337 Y188.920 E391.1727
G1 X91.080 Y123.663 E399.2761
G1 X91.080 Y122.985 E399.3357
G1 X157.015 Y188.920 E407.5234
G1 X157.694 Y188.920 E407.5830
G1 X91.080 Y122.306 E415.8550
G1 X91.080 Y121.627 E415.9146
G1 X158.373 Y188.920 E424.2709
G1 X159.052 Y188.920 E424.3305
G1 X91.080 Y120.948 E432.7711
G1 X91.080 Y120.269 E432.8307
G1 X159.731 Y188.920 E441.3555
G1 X160.409 Y188.920 E441.4152
G1 X91.080 Y119.591 E450.0243
G1 X91.080 Y118.912 E450.0839
G1 X161.088 Y188.920 E458.7774
G1 X161.767 Y188.920 E458.8370
G1 X91.080 Y118.233 E467.6147
G1 X91.080 Y117.554 E467.6743
G1 X162.446 Y188.920 E476.5364
G1 X163.125 Y188.920 E476.5960
G1 X91.080 Y116.875 E485.5423
G1 X91.080 Y116.196 E485.6019
G1 X163.804 Y188.920 E494.6326
G1 X164.482 Y188.920 E494.6922
G1 X91.080 Y115.518 E503.8071
G1 X91.080 Y114.839 E503.8667
G1 X165.161 Y188.920 E513.0659
G1 X165.840 Y188.920 E513.1255
G1 X91.080 Y114.160 E522.4090
G1 X91.080 Y113.481 E522.4686
G1 X166.519 Y188.920 E531.8365
G1 X167.198 Y188.920 E531.8961
G1 X91.080 Y112.802 E541.3482
G1 X91.080 Y112.123 E541.4078
G1 X167.877 Y188.920 E550.9442
G1 X168.555 Y188.920 E551.0038
G1 X91.080 Y111.445 E560.6245
G1 X91.080 Y111.080 E560.6565
G1 X91.394 Y111.080 E560.6841
G1 X169.234 Y188.920 E570.3501
G1 X169.913 Y188.920 E570.4097
G1 X92.073 Y111.080 E580.0756
G1 X92.752 Y111.080 E580.1352
G1 X170.592 Y188.920 E589.8012
G1 X171.271 Y188.920 E589.8608
G1 X93.431 Y111.080 E599.5268
G1 X94.109 Y111.080 E599.5864
G1 X171.949 Y188.920 E609.2524
G1 X172.628 Y188.920 E609.3120
G1 X94.788 Y111.080 E618.9780
G1 X95.467 Y111.080 E619.0376
G1 X173.307 Y188.920 E628.7035
G1 X173.986 Y188.920 E628.7632
G1 X96.146 Y111.080 E638.4291
G1 X96.825 Y111.080 E638.4887
G1 X174.665 Y188.920 E648.1547
G1 X175.344 Y188.920 E648.2143
G1 X97.504 Y111.080 E657.8803
G1 X98.182 Y111.080 E657.9399
G1 X176.022 Y188.920 E667.6059
G1 X176.701 Y188.920 E667.6655
G1 X98.861 Y111.080 E677.3315
G1 X99.540 Y111.080 E677.3911
G1 X177.380 Y188.920 E687.0570
G1 X178.059 Y188.920 E687.1166
G1 X100.219 Y111.080 E696.7826
G1 X100.898 Y111.080 E696.8422
G1 X178.738 Y188.920 E706.5082
G1 X179.416 Y188.920 E706.5678
G1 X101.576 Y111.080 E716.2338
G1 X102.255 Y111.080 E716.2934
G1 X180.095 Y188.920 E725.9594
G1 X180.774 Y188.920 E726.0190
G1 X102.934 Y111.080 E735.6850
G1 X103.613 Y111.080 E735.7446
G1 X181.453 Y188.920 E745.4105
G1 X182.132 Y188.920 E745.4701
G1 X104.292 Y111.080 E755.1361
G1 X104.971 Y111.080 E755.1957
G1 X182.811 Y188.920 E764.8617
G1 X183.489 Y188.920 E764.9213
G1 X105.649 Y111.080 E774.5873
G1 X106.328 Y111.080 E774.6469
G1 X184.168 Y188.920 E784.3129
G1 X184.847 Y188.920 E784.3725
G1 X107.007 Y111.080 E794.0384
G1 X107.686 Y111.080 E794.0981
G1 X185.526 Y188.920 E803.7640
G1 X186.205 Y188.920 E803.8236
G1 X108.365 Y111.080 E813.4896
G1 X109.044 Y111.080 E813.5492
G1 X186.884 Y188.920 E823.2152
G1 X187.562 Y188.920 E823.2748
G1 X109.722 Y111.080 E832.9408
G1 X110.401 Y111.080 E833.0004
G1 X188.241 Y188.920 E842.6664
G1 X188.920 Y188.920 E842.7260
G1 X111.080 Y111.080 E852.3919
G1 X111.759 Y111.080 E852.4515
G1 X189.599 Y188.920 E862.1175
G1 X190.278 Y188.920 E862.1771
G1 X112.438 Y111.080 E871.8431
G1 X113.116 Y111.080 E871.9027
G1 X190.956 Y188.920 E881.5687
G1 X191.635 Y188.920 E881.6283
G1 X113.795 Y111.080 E891.2943
G1 X114.474 Y111.080 E891.3539
