; G-Code generated by Simplify3D(R) Version 4.1.2
; May 1, 2020 at 9:57:51 AM
; Settings Summary
;   processName,Process1
;   applyToModels,CapteurMTOExt partie haute
;   profileName,Alfawise U20 One (modified)
;   profileVersion,2020-04-25 19:56:53
;   baseProfile,Creality CR-10(2)
;   printMaterial,PLA
;   printQuality,Medium
;   printExtruders,
;   extruderName,Primary Extruder
;   extruderToolheadNumber,0
;   extruderDiameter,0.4
;   extruderAutoWidth,1
;   extruderWidth,0.48
;   extrusionMultiplier,1.1
;   extruderUseRetract,1
;   extruderRetractionDistance,2.5
;   extruderExtraRestartDistance,0
;   extruderRetractionZLift,0
;   extruderRetractionSpeed,3600
;   extruderUseCoasting,1
;   extruderCoastingDistance,0.2
;   extruderUseWipe,1
;   extruderWipeDistance,4
;   primaryExtruder,0
;   layerHeight,0.2
;   topSolidLayers,5
;   bottomSolidLayers,5
;   perimeterOutlines,2
;   printPerimetersInsideOut,1
;   startPointOption,2
;   startPointOriginX,0
;   startPointOriginY,500
;   sequentialIslands,0
;   spiralVaseMode,0
;   firstLayerHeightPercentage,200
;   firstLayerWidthPercentage,100
;   firstLayerUnderspeed,0.5
;   useRaft,0
;   raftExtruder,0
;   raftTopLayers,1
;   raftBaseLayers,1
;   raftOffset,3
;   raftSeparationDistance,0.14
;   raftTopInfill,80
;   aboveRaftSpeedMultiplier,0.5
;   useSkirt,1
;   skirtExtruder,0
;   skirtLayers,2
;   skirtOutlines,1
;   skirtOffset,2
;   usePrimePillar,0
;   primePillarExtruder,999
;   primePillarWidth,12
;   primePillarLocation,7
;   primePillarSpeedMultiplier,1
;   useOozeShield,0
;   oozeShieldExtruder,999
;   oozeShieldOffset,2
;   oozeShieldOutlines,1
;   oozeShieldSidewallShape,1
;   oozeShieldSidewallAngle,30
;   oozeShieldSpeedMultiplier,1
;   infillExtruder,0
;   internalInfillPattern,Full Honeycomb
;   externalInfillPattern,Rectilinear
;   infillPercentage,20
;   outlineOverlapPercentage,25
;   infillExtrusionWidthPercentage,120
;   minInfillLength,5
;   infillLayerInterval,1
;   internalInfillAngles,0,120,-120
;   overlapInternalInfillAngles,0
;   externalInfillAngles,45,-45
;   generateSupport,1
;   supportExtruder,0
;   supportInfillPercentage,20
;   supportExtraInflation,1
;   supportBaseLayers,2
;   denseSupportExtruder,0
;   denseSupportLayers,0
;   denseSupportInfillPercentage,70
;   supportLayerInterval,1
;   supportHorizontalPartOffset,0.4
;   supportUpperSeparationLayers,2
;   supportLowerSeparationLayers,2
;   supportType,0
;   supportGridSpacing,2
;   maxOverhangAngle,45
;   supportAngles,0,45
;   temperatureName,Primary Extruder,Heated Bed
;   temperatureNumber,0,0
;   temperatureSetpointCount,1,1
;   temperatureSetpointLayers,1,1
;   temperatureSetpointTemperatures,210,50
;   temperatureStabilizeAtStartup,1,1
;   temperatureHeatedBed,0,1
;   fanLayers,1,3,4
;   fanSpeeds,0,80,100
;   blipFanToFullPower,1
;   adjustSpeedForCooling,1
;   minSpeedLayerTime,15
;   minCoolingSpeedSlowdown,80
;   increaseFanForCooling,0
;   minFanLayerTime,45
;   maxCoolingFanSpeed,100
;   increaseFanForBridging,1
;   bridgingFanSpeed,100
;   use5D,1
;   relativeEdistances,0
;   allowEaxisZeroing,1
;   independentExtruderAxes,0
;   includeM10123,0
;   stickySupport,1
;   applyToolheadOffsets,0
;   gcodeXoffset,0
;   gcodeYoffset,0
;   gcodeZoffset,0
;   overrideMachineDefinition,1
;   machineTypeOverride,0
;   strokeXoverride,300
;   strokeYoverride,300
;   strokeZoverride,400
;   originOffsetXoverride,0
;   originOffsetYoverride,0
;   originOffsetZoverride,0
;   homeXdirOverride,-1
;   homeYdirOverride,-1
;   homeZdirOverride,-1
;   flipXoverride,1
;   flipYoverride,-1
;   flipZoverride,1
;   toolheadOffsets,0,0|0,0|0,0|0,0|0,0|0,0
;   overrideFirmwareConfiguration,1
;   firmwareTypeOverride,RepRap (Marlin/Repetier/Sprinter)
;   GPXconfigOverride,r2
;   baudRateOverride,250000
;   overridePrinterModels,1
;   printerModelsOverride
;   startingGcode,G28 ; home all axes,G1 Z5 F3000 ; lift,G1 X20 Y20 F1500 ; avoid binder clips,G1 Z0.2 F3000 ; get ready to prime,G92 E0 ; reset extrusion distance,G1 X120 E10 F600 ; prime nozzle,G1 X150 F5000 ; quick wipe,M117 MADEINFCK
;   layerChangeGcode,
;   retractionGcode,
;   toolChangeGcode,
;   endingGcode,G28 X0 ; home x axis,M106 S0 ; turn off cooling fan,M104 S0 ; turn off extruder,M140 S0 ; turn off bed,M84 ; disable motors,M117 IMPRESSION TERMINEE
;   exportFileFormat,gcode
;   celebration,0
;   celebrationSong,Star Wars
;   postProcessing,
;   defaultSpeed,3600
;   outlineUnderspeed,0.6
;   solidInfillUnderspeed,0.8
;   supportUnderspeed,0.8
;   rapidXYspeed,7200
;   rapidZspeed,1002
;   minBridgingArea,50
;   bridgingExtraInflation,0
;   bridgingExtrusionMultiplier,0.85
;   bridgingSpeedMultiplier,1.05
;   useFixedBridgingAngle,0
;   fixedBridgingAngle,0
;   applyBridgingToPerimeters,0
;   filamentDiameters,1.75|1.75|1.75|1.75|1.75|1.75
;   filamentPricesPerKg,30|46|46|46|46|46
;   filamentDensities,1.25|1.25|1.25|1.25|1.25|1.25
;   useMinPrintHeight,0
;   minPrintHeight,31
;   useMaxPrintHeight,0
;   maxPrintHeight,9
;   useDiaphragm,0
;   diaphragmLayerInterval,20
;   robustSlicing,1
;   mergeAllIntoSolid,0
;   onlyRetractWhenCrossingOutline,1
;   retractBetweenLayers,1
;   useRetractionMinTravel,0
;   retractionMinTravel,3
;   retractWhileWiping,0
;   onlyWipeOutlines,1
;   avoidCrossingOutline,0
;   maxMovementDetourFactor,3
;   toolChangeRetractionDistance,12
;   toolChangeExtraRestartDistance,-0.5
;   toolChangeRetractionSpeed,600
;   externalThinWallType,0
;   internalThinWallType,2
;   thinWallAllowedOverlapPercentage,20
;   singleExtrusionMinLength,1
;   singleExtrusionMinPrintingWidthPercentage,50
;   singleExtrusionMaxPrintingWidthPercentage,200
;   singleExtrusionEndpointExtension,0.3
;   horizontalSizeCompensation,0
G90
M82
M106 S0
M140 S50
M190 S50
M104 S210 T0
M109 S210 T0
G28 ; home all axes
G1 Z5 F3000 ; lift
G1 X20 Y20 F1500 ; avoid binder clips
G1 Z0.2 F3000 ; get ready to prime
G92 E0 ; reset extrusion distance
G1 X120 E10 F600 ; prime nozzle
G1 X150 F5000 ; quick wipe
M117 MADEINFCK
; process Process1
; layer 1, Z = 0.400
T0
G92 E0.0000
G1 E-2.5000 F3600
; feature skirt
; tool H0.400 W0.480
G1 Z0.400 F1002
G1 X87.072 Y105.760 F7200
G1 E0.0000 F3600
G92 E0.0000
G1 X212.928 Y105.760 E11.0510 F1800
G1 X214.240 Y107.072 E11.2139
G1 X214.240 Y192.928 E18.7526
G1 X212.928 Y194.240 E18.9156
G1 X87.072 Y194.240 E29.9665
G1 X85.760 Y192.928 E30.1295
G1 X85.760 Y107.072 E37.6682
G1 X87.072 Y105.760 E37.8311
G92 E0.0000
G1 E-2.5000 F3600
; feature inner perimeter
G1 X88.720 Y108.720 F7200
G1 E0.0000 F3600
G92 E0.0000
G1 X211.280 Y108.720 E10.7616 F1440
G1 X211.280 Y191.280 E18.0109
G1 X88.720 Y191.280 E28.7725
G1 X88.720 Y108.920 E36.0043
G1 X88.720 Y108.720 F1440
; feature outer perimeter
G1 X88.240 Y108.240 F7200
G92 E0.0000
G1 X211.760 Y108.240 E10.8459 F1080
G1 X211.760 Y191.760 E18.1795
G1 X88.240 Y191.760 E29.0254
G1 X88.240 Y108.440 E36.3415
G1 X88.240 Y108.240 F1080
G1 X92.240 Y108.240 F1080
; feature inner perimeter
G1 X89.280 Y109.280 F7200
G92 E0.0000
G1 X89.280 Y190.720 E7.1510 F1440
G1 X210.720 Y190.720 E17.8142
G1 X210.720 Y109.280 E24.9652
G1 X89.480 Y109.280 E35.6109
G1 X89.280 Y109.280 F1440
; feature outer perimeter
G1 X89.760 Y109.760 F7200
G92 E0.0000
G1 X89.760 Y190.240 E7.0667 F1080
G1 X210.240 Y190.240 E17.6456
G1 X210.240 Y109.760 E24.7123
G1 X89.960 Y109.760 E35.2737
G1 X89.760 Y109.760 F1080
G92 E0.0000
G1 E-2.5000 F3600
G1 X89.760 Y113.760 F1080
; feature support
G1 X90.650 Y111.120 F7200
G1 E0.0000 F3600
G92 E0.0000
G1 X209.350 Y111.120 E10.4227 F1440
G1 X209.350 Y111.600 E10.4648
G1 X90.650 Y111.600 E20.8875
G1 X90.650 Y112.080 E20.9296
G1 X209.350 Y112.080 E31.3523
G1 X209.350 Y112.560 E31.3944
G1 X90.650 Y112.560 E41.8171
G1 X90.650 Y113.040 E41.8592
G1 X209.350 Y113.040 E52.2819
G1 X209.350 Y113.520 E52.3240
G1 X90.650 Y113.520 E62.7467
G1 X90.650 Y114.000 E62.7889
G1 X209.350 Y114.000 E73.2115
G1 X209.350 Y114.480 E73.2537
G1 X90.650 Y114.480 E83.6763
G1 X90.650 Y114.960 E83.7185
G1 X209.350 Y114.960 E94.1411
G1 X209.350 Y115.440 E94.1833
G1 X90.650 Y115.440 E104.6059
G1 X90.650 Y115.920 E104.6481
G1 X209.350 Y115.920 E115.0708
G1 X209.350 Y116.400 E115.1129
G1 X90.650 Y116.400 E125.5356
G1 X90.650 Y116.880 E125.5777
G1 X209.350 Y116.880 E136.0004
G1 X209.350 Y117.360 E136.0425
G1 X90.650 Y117.360 E146.4652
G1 X90.650 Y117.840 E146.5073
G1 X209.350 Y117.840 E156.9300
G1 X209.350 Y118.320 E156.9721
G1 X90.650 Y118.320 E167.3948
G1 X90.650 Y118.800 E167.4370
G1 X209.350 Y118.800 E177.8596
G1 X209.350 Y119.280 E177.9018
G1 X90.650 Y119.280 E188.3244
G1 X90.650 Y119.760 E188.3666
G1 X209.350 Y119.760 E198.7892
G1 X209.350 Y120.240 E198.8314
G1 X90.650 Y120.240 E209.2540
G1 X90.650 Y120.720 E209.2962
G1 X209.350 Y120.720 E219.7189
G1 X209.350 Y121.200 E219.7610
G1 X90.650 Y121.200 E230.1837
G1 X90.650 Y121.680 E230.2258
G1 X209.350 Y121.680 E240.6485
G1 X209.350 Y122.160 E240.6906
G1 X90.650 Y122.160 E251.1133
G1 X90.650 Y122.640 E251.1554
G1 X209.350 Y122.640 E261.5781
G1 X209.350 Y123.120 E261.6202
G1 X90.650 Y123.120 E272.0429
G1 X90.650 Y123.600 E272.0850
G1 X209.350 Y123.600 E282.5077
G1 X209.350 Y124.080 E282.5499
G1 X90.650 Y124.080 E292.9725
G1 X90.650 Y124.560 E293.0147
G1 X209.350 Y124.560 E303.4373
G1 X209.350 Y125.040 E303.4795
G1 X90.650 Y125.040 E313.9021
G1 X90.650 Y125.520 E313.9443
G1 X209.350 Y125.520 E324.3669
G1 X209.350 Y126.000 E324.4091
G1 X90.650 Y126.000 E334.8318
G1 X90.650 Y126.480 E334.8739
G1 X209.350 Y126.480 E345.2966
G1 X209.350 Y126.960 E345.3387
G1 X90.650 Y126.960 E355.7614
G1 X90.650 Y127.440 E355.8035
G1 X209.350 Y127.440 E366.2262
G1 X209.350 Y127.920 E366.2683
G1 X90.650 Y127.920 E376.6910
G1 X90.650 Y128.400 E376.7331
G1 X209.350 Y128.400 E387.1558
G1 X209.350 Y128.880 E387.1979
G1 X90.650 Y128.880 E397.6206
G1 X90.650 Y129.360 E397.6628
G1 X209.350 Y129.360 E408.0854
G1 X209.350 Y129.840 E408.1276
G1 X90.650 Y129.840 E418.5502
G1 X90.650 Y130.320 E418.5924
G1 X209.350 Y130.320 E429.0150
G1 X209.350 Y130.800 E429.0572
G1 X90.650 Y130.800 E439.4798
G1 X90.650 Y131.280 E439.5220
G1 X209.350 Y131.280 E449.9447
G1 X209.350 Y131.760 E449.9868
G1 X90.650 Y131.760 E460.4095
G1 X90.650 Y132.240 E460.4516
G1 X209.350 Y132.240 E470.8743
G1 X209.350 Y132.720 E470.9164
G1 X90.650 Y132.720 E481.3391
G1 X90.650 Y133.200 E481.3812
G1 X209.350 Y133.200 E491.8039
G1 X209.350 Y133.680 E491.8460
G1 X90.650 Y133.680 E502.2687
G1 X90.650 Y134.160 E502.3109
G1 X209.350 Y134.160 E512.7335
G1 X209.350 Y134.640 E512.7757
G1 X90.650 Y134.640 E523.1983
G1 X90.650 Y135.120 E523.2405
G1 X209.350 Y135.120 E533.6631
G1 X209.350 Y135.600 E533.7053
G1 X90.650 Y135.600 E544.1279
G1 X90.650 Y136.080 E544.1701
G1 X209.350 Y136.080 E554.5928
G1 X209.350 Y136.560 E554.6349
G1 X90.650 Y136.560 E565.0576
G1 X90.650 Y137.040 E565.0997
G1 X209.350 Y137.040 E575.5224
G1 X209.350 Y137.520 E575.5645
G1 X90.650 Y137.520 E585.9872
G1 X90.650 Y138.000 E586.0293
G1 X209.350 Y138.000 E596.4520
G1 X209.350 Y138.480 E596.4941
G1 X90.650 Y138.480 E606.9168
G1 X90.650 Y138.960 E606.9589
G1 X209.350 Y138.960 E617.3816
G1 X209.350 Y139.440 E617.4238
G1 X90.650 Y139.440 E627.8464
G1 X90.650 Y139.920 E627.8886
G1 X209.350 Y139.920 E638.3112
G1 X209.350 Y140.400 E638.3534
G1 X90.650 Y140.400 E648.7760
G1 X90.650 Y140.880 E648.8182
G1 X209.350 Y140.880 E659.2408
G1 X209.350 Y141.360 E659.2830
G1 X159.030 Y141.360 E663.7014
G1 X159.030 Y140.970 E663.7357
G1 X140.970 Y140.970 E665.3215
G1 X140.970 Y141.360 E665.3557
G1 X90.650 Y141.360 E669.7741
G1 X90.650 Y141.840 E669.8163
G1 X140.970 Y141.840 E674.2347
G1 X140.970 Y142.320 E674.2769
G1 X90.650 Y142.320 E678.6953
G1 X90.650 Y142.800 E678.7375
G1 X140.970 Y142.800 E683.1559
G1 X140.970 Y143.280 E683.1980
G1 X90.650 Y143.280 E687.6165
G1 X90.650 Y143.760 E687.6586
G1 X140.970 Y143.760 E692.0771
G1 X140.970 Y144.240 E692.1192
G1 X90.650 Y144.240 E696.5377
G1 X90.650 Y144.720 E696.5798
G1 X140.970 Y144.720 E700.9982
G1 X140.970 Y145.200 E701.0404
G1 X90.650 Y145.200 E705.4588
G1 X90.650 Y145.680 E705.5010
G1 X140.970 Y145.680 E709.9194
G1 X140.970 Y146.160 E709.9616
G1 X90.650 Y146.160 E714.3800
G1 X90.650 Y146.640 E714.4221
G1 X140.970 Y146.640 E718.8406
G1 X140.970 Y147.120 E718.8827
G1 X90.650 Y147.120 E723.3012
G1 X90.650 Y147.600 E723.3433
G1 X140.970 Y147.600 E727.7618
G1 X140.970 Y148.080 E727.8039
G1 X90.650 Y148.080 E732.2223
G1 X90.650 Y148.560 E732.2645
G1 X140.970 Y148.560 E736.6829
G1 X140.970 Y149.040 E736.7251
G1 X90.650 Y149.040 E741.1435
G1 X90.650 Y149.520 E741.1857
G1 X140.970 Y149.520 E745.6041
G1 X140.970 Y150.000 E745.6462
G1 X90.650 Y150.000 E750.0647
G1 X90.650 Y150.480 E750.1068
G1 X140.970 Y150.480 E754.5253
G1 X140.970 Y150.960 E754.5674
G1 X90.650 Y150.960 E758.9858
G1 X90.650 Y151.440 E759.0280
G1 X140.970 Y151.440 E763.4464
G1 X140.970 Y151.920 E763.4886
G1 X90.650 Y151.920 E767.9070
G1 X90.650 Y152.400 E767.9492
G1 X140.970 Y152.400 E772.3676
G1 X140.970 Y152.880 E772.4098
G1 X90.650 Y152.880 E776.8282
G1 X90.650 Y153.360 E776.8703
G1 X140.970 Y153.360 E781.2888
G1 X140.970 Y153.840 E781.3309
G1 X90.650 Y153.840 E785.7494
G1 X90.650 Y154.320 E785.7915
G1 X140.970 Y154.320 E790.2099
G1 X140.970 Y154.800 E790.2521
G1 X90.650 Y154.800 E794.6705
G1 X90.650 Y155.280 E794.7127
G1 X140.970 Y155.280 E799.1311
G1 X140.970 Y155.760 E799.1733
G1 X90.650 Y155.760 E803.5917
G1 X90.650 Y156.240 E803.6338
G1 X140.970 Y156.240 E808.0523
G1 X140.970 Y156.720 E808.0944
G1 X90.650 Y156.720 E812.5129
G1 X90.650 Y157.200 E812.5550
G1 X140.970 Y157.200 E816.9735
G1 X140.970 Y157.680 E817.0156
G1 X90.650 Y157.680 E821.4340
G1 X90.650 Y158.160 E821.4762
G1 X140.970 Y158.160 E825.8946
G1 X140.970 Y158.640 E825.9368
G1 X90.650 Y158.640 E830.3552
G1 X90.650 Y159.120 E830.3974
G1 X209.350 Y159.120 E840.8200
G1 X209.350 Y159.600 E840.8622
G1 X90.650 Y159.600 E851.2848
G1 X90.650 Y160.080 E851.3270
G1 X209.350 Y160.080 E861.7496
G1 X209.350 Y160.560 E861.7918
G1 X90.650 Y160.560 E872.2144
G1 X90.650 Y161.040 E872.2566
G1 X209.350 Y161.040 E882.6793
G1 X209.350 Y161.520 E882.7214
G1 X90.650 Y161.520 E893.1441
G1 X90.650 Y162.000 E893.1862
G1 X209.350 Y162.000 E903.6089
G1 X209.350 Y162.480 E903.6510
G1 X90.650 Y162.480 E914.0737
G1 X90.650 Y162.960 E914.1158
G1 X209.350 Y162.960 E924.5385
G1 X209.350 Y163.440 E924.5806
G1 X90.650 Y163.440 E935.0033
G1 X90.650 Y163.920 E935.0455
G1 X209.350 Y163.920 E945.4681
G1 X209.350 Y164.400 E945.5103
G1 X90.650 Y164.400 E955.9329
G1 X90.650 Y164.880 E955.9751
G1 X209.350 Y164.880 E966.3977
G1 X209.350 Y165.360 E966.4399
G1 X90.650 Y165.360 E976.8625
G1 X90.650 Y165.840 E976.9047
G1 X209.350 Y165.840 E987.3274
G1 X209.350 Y166.320 E987.3695
G1 X90.650 Y166.320 E997.7922
G1 X90.650 Y166.800 E997.8343
G1 X209.350 Y166.800 E1008.2570
G1 X209.350 Y167.280 E1008.2991
G1 X90.650 Y167.280 E1018.7218
G1 X90.650 Y167.760 E1018.7639
G1 X209.350 Y167.760 E1029.1866
G1 X209.350 Y168.240 E1029.2287
G1 X90.650 Y168.240 E1039.6514
G1 X90.650 Y168.720 E1039.6935
G1 X209.350 Y168.720 E1050.1162
G1 X209.350 Y169.200 E1050.1584
G1 X90.650 Y169.200 E1060.5810
G1 X90.650 Y169.680 E1060.6232
G1 X209.350 Y169.680 E1071.0458
G1 X209.350 Y170.160 E1071.0880
G1 X90.650 Y170.160 E1081.5106
G1 X90.650 Y170.640 E1081.5528
G1 X209.350 Y170.640 E1091.9754
G1 X209.350 Y171.120 E1092.0176
G1 X90.650 Y171.120 E1102.4403
G1 X90.650 Y171.600 E1102.4824
G1 X209.350 Y171.600 E1112.9051
G1 X209.350 Y172.080 E1112.9472
G1 X90.650 Y172.080 E1123.3699
G1 X90.650 Y172.560 E1123.4120
G1 X209.350 Y172.560 E1133.8347
G1 X209.350 Y173.040 E1133.8768
G1 X90.650 Y173.040 E1144.2995
G1 X90.650 Y173.520 E1144.3416
G1 X209.350 Y173.520 E1154.7643
G1 X209.350 Y174.000 E1154.8064
G1 X90.650 Y174.000 E1165.2291
G1 X90.650 Y174.480 E1165.2713
G1 X209.350 Y174.480 E1175.6939
G1 X209.350 Y174.960 E1175.7361
G1 X90.650 Y174.960 E1186.1587
G1 X90.650 Y175.440 E1186.2009
G1 X209.350 Y175.440 E1196.6235
G1 X209.350 Y175.920 E1196.6657
G1 X90.650 Y175.920 E1207.0883
G1 X90.650 Y176.400 E1207.1305
G1 X209.350 Y176.400 E1217.5532
G1 X209.350 Y176.880 E1217.5953
